X:1
T:Title
%%score { ( 1 4 ) | ( 2 3 ) }
L:1/8
Q:1/4=90
M:6/8
K:A
V:1 treble nm="Grand Piano"
V:4 treble 
V:2 bass 
V:3 bass 
V:1
 [CE]2 [Ec] [Ec][DB][CA] | BAF [DF]2 [CE] | [CA]2 [CA] [CA][DG][A,EA] | z3 B3 | %4
w: J.~Howard~Entwisle * * * *||||
 [CE]2 [Ec] [Ec][DB][CA] | BAF [DF]2 [CE] | c2 d e2 c | [EGc]2 [DEB] [CEA]3 | z3 .d3 | %9
w: |||||
 [Ec]2 [Ec] c2 A | [GB]2 [GB] [Ge]2 [EG] | .[^DB]2 [A,DF] [G,E]3 | [CE]2 [Ec] [Ec][DB][CA] | %13
w: ||||
 BAF [DF]2 [CE] | c2 d e2 c |[M:7/8] [EGc]3 [DEB] [CEA]3 |] %16
w: |||
V:2
 [A,,A,]2 [A,,A,] [A,,E,]2 [A,,E,] | [D,F,D]2 [D,A,D] [A,,A,]2 [A,,A,] | z3 .E,3 | %3
 [E,G,E]2 [E,A,E] .[E,G,E]3 | [A,,A,]2 [A,,A,] [A,,E,]2 [A,,E,] | %5
 [D,F,D]2 [D,A,D] [A,,A,]2 [A,,A,] | [A,E]2 [A,B,E] [A,CE]2 [A,EA] | E,2 E, A,,3 | %8
 D,2 [D,A,] [D,A,]2 [D,A,] | [A,,A,]2 [A,,A,] [A,E]2 [A,CE] | [E,E]2 [E,E] [E,B,]2 [E,B,] | %11
 z AB,, z2 D | [A,,A,]2 [A,,A,] [A,,E,]2 [A,,E,] | [D,F,D]2 [D,A,D] [A,,A,]2 [A,,A,] | %14
 [A,E]2 [A,B,E] [A,CA]2 [A,EA] |[M:7/8][K:bass] E,3 E, A,,3 |] %16
V:3
 x6 | x6 | [A,,E,]2 [A,,E,] A,,B,,C, | x6 | x6 | x6 | x6 | x6 | x6 | x6 | x6 | .[B,,F,]3 E,3 | x6 | %13
 x6 | x6 |[M:7/8][K:bass] x7 |] %16
V:4
 x6 | x6 | x6 | B2 c z2 D | x6 | x6 | x6 | x6 | [DFA]2 [Fd] F-[FA][^EB] | x6 | x6 | x6 | x6 | x6 | %14
 x6 |[M:7/8] x7 |] %16

